X:14176
T:Reelin Bridge
M:4/4
L:1/8
Q:200
C:Copyright 1995 Michael Robinson
R:Reel
N:Reelin Bridge is in the Blue Stack mountains of Donegal.
K:ADor
"Am"ABcd efga|"G"bgdg BGGB|"Am"ABcd efga|"G"bgdB "Am"A2A2:|
"Am"aece "G"dBGB|"Am"cAEA "Em"GEE2|"Am"aece "G"dBGB|"F"c/2B/2A "G"BG "Am
"A2A2|
"Am"aece "G"dBGB|"Am"cAEA "Em"GEE2|"Am"A,B,CD EFGA|"G"BGDB, "Am"A,4||
% Output from ABC2Win  Version 2.0  on 17/06/96
